**kern	**silbe
*ICvox	*
*F:	*
*M4/4	*
*clefGv2	*
r;	.
=1	=1
1r	.
=2	=2
1r	.
=3	=3
1r	.
=4	=4
1r	.
=5	=5
1r	.
=6	=6
1r	.
=7	=7
1r	.
=8	=8
1r	.
=9	=9
1r	.
=10	=10
1r	.
=11	=11
1r	.
=12	=12
1r	.
=13	=13
4r	.
4D	_
4F	_
4G	_
=14	=14
8A	_
[8A	_
8A]	_
[8G	_
4G]	_
8F	_
[8G	_
=15	=15
4G]	_
4E	_
4E	_
8D	_
[8E	_
=16	=16
8.E]	_
16r	.
4r	.
2r	.
=17	=17
4r	.
4D	_
4F	_
8G	_
8G	_
=18	=18
8A	_
[8A	_
8A]	_
[8G	_
4G]	_
4F	_
=19	=19
4G	_
4E	_
8E	_
[8D	_
8D]	_
[8E	_
=20	=20
8.E]	_
16r	.
4r	.
2r	.
=21	=21
4r	.
8B-	_
[8B-	_
4B-]	_
4B-	_
=22	=22
4B-	_
8B-	_
[8c	_
4c]	_
8B-	_
[8A	_
=23	=23
8A]	_
[8A	_
4A]	_
4F	_
8G	_
8A	_
=24	=24
4r	.
4r	.
2r	.
=25	=25
4r	.
4B-	_
8B-	_
[8B-	_
8B-]	_
[8B-	_
=26	=26
4B-]	_
4B-	_
4c	_
8B-	_
[8B-	_
=27	=27
8B-]	_
[8A	_
8A]	_
[8A	_
2A]	_
=28	=28
2B	_
2r	.
=29	=29
2r	.
8d	_
8d	_
8d	_
[8d	_
=30	=30
8d]	_
8r	.
4r	.
2r	.
=31	=31
2r	.
8d	_
8d	_
8d	_
[8c#	_
=32	=32
8c#]	_
8r	.
4r	.
2r	.
=33	=33
2r	.
8c#	_
[8c#	_
8c#]	_
8r	.
=34	=34
4B	_
4r	.
4A	_
4r	.
=35	=35
4G	_
4r	.
2r	.
=36	=36
8r	.
[8d	_
8d]	_
8d	_
8d	_
8d	_
8d	_
[8f	_
=37	=37
8f]	_
[8d	_
8d]	_
[8d	_
4d]	_
4r	.
=38	=38
2r	.
8A	_
8A	_
8A	_
[8B	_
=39	=39
8B]	_
8r	.
4r	.
2r	.
=40	=40
8r	.
[8d	_
8d]	_
8d	_
8d	_
8d	_
8d	_
[8f	_
=41	=41
8f]	_
8d	_
4d	_
4r	.
4r	.
=42	=42
8r	.
[8A	_
8A]	_
8A	_
8A	_
8G	_
8G#	_
[8A	_
=43	=43
8A]	_
8r	.
4r	.
4r	.
4C#	_
=44	=44
4D	_
4r	.
2r	.
=45	=45
2r	.
4r	.
4D	_
=46	=46
4D	_
4r	.
2r	.
=47	=47
1r	.
=48	=48
4.r	.
8D	_
4F	_
8G	_
8A	_
=49	=49
4.A	_
8r	.
8r	.
8G	_
4F	_
=50	=50
8G	_
8E	_
8.E	_
16r	.
4E	_
16r	.
8D	_
[16E	_
=51	=51
4r	.
4r	.
2r	.
=52	=52
4r	.
4D	_
4E]	_
4F	_
=53	=53
6A	_
[12A	_
4A]	_
4G	_
8.F	_
[16G	_
=54	=54
8.G]	_
[16E	_
8.E]	_
16r	.
4E	_
16r	.
8D	_
[16E	_
=55	=55
4E]	_
4r	.
2r	.
=56	=56
4r	.
4B-	_
4B-	_
4B-	_
=57	=57
24r	.
8B-	_
[12B-	_
4B-]	_
4c	_
8.B-	_
[16B-	_
=58	=58
4B-]	_
4A	_
8r	.
8F	_
8G	_
[8A	_
=59	=59
4A]	_
4r	.
2r	.
=60	=60
4r	.
4B-	_
4B-	_
4B-	_
=61	=61
24r	.
8B-	_
[12B-	_
4B-]	_
4c	_
8.B-	_
[16B-	_
=62	=62
4B-]	_
4A	_
2A	_
=63	=63
2.B	_
4r	.
=64	=64
2r	.
8.d	_
[16d	_
16d]	_
16r	.
8d	_
=65	=65
2d	_
2r	.
=66	=66
2r	.
4d	_
8d	_
8d	_
=67	=67
2c#	_
2r	.
=68	=68
2r	.
12r	.
6c#	_
12r	.
6c#	_
=69	=69
4B	_
4r	.
4A	_
4r	.
=70	=70
4G	_
4r	.
2r	.
=71	=71
4r	.
8d	_
[8d	_
8d]	_
8d	_
8d	_
8d	_
=72	=72
4f	_
4d	_
4d	_
4r	.
=73	=73
2r	.
8A	_
8A	_
8A	_
[8B	_
=74	=74
8B]	_
8r	.
4r	.
2r	.
=75	=75
4r	.
8d	_
[8d	_
8d]	_
8d	_
8d	_
8d	_
=76	=76
4f	_
4d	_
4d	_
4r	.
=77	=77
4r	.
8A	_
8A	_
8A	_
8G	_
8F	_
[8A	_
=78	=78
8A]	_
8r	.
4r	.
4r	.
8C	_
8D	_
=79	=79
4D	_
4r	.
2r	.
=80	=80
2r	.
4r	.
4D	_
=81	=81
4D	_
4r	.
2r	.
=82	=82
1r	.
=83	=83
4r	.
8d	_
[8d	_
8d]	_
8d	_
8d	_
8d	_
=84	=84
4f	_
4d	_
4d	_
4r	.
=85	=85
2r	.
8A	_
8A	_
8A	_
[8B	_
=86	=86
8B]	_
8r	.
4r	.
2r	.
=87	=87
4r	.
8d	_
[8d	_
8d]	_
8d	_
8d	_
8d	_
=88	=88
4f	_
4d	_
4d	_
4r	.
=89	=89
4r	.
8A	_
8A	_
8A	_
8G	_
8F	_
[8A	_
=90	=90
8A]	_
8r	.
4r	.
4r	.
8C	_
8D	_
=91	=91
4D	_
4r	.
2r	.
=92	=92
2r	.
4r	.
4D	_
=93	=93
4D	_
4r	.
2r	.
=94	=94
2r	.
4r	.
8r	.
[8d	_
4r	.
12d	_
6c	_
8d	_
8d	_
4d	_
=95	=95
4d]	_
4r	.
2r	.
4D	_
4r	.
2r	.
=96	=96
4r	.
12d	_
6c	_
8d	_
8d	_
8d	_
[8d	_
=97	=97
4d]	_
4r	.
2r	.
=98	=98
4r	.
12d	_
[6c	_
8c]	_
8d	_
8d	_
8d	_
=99	=99
2d	_
2r	.
=100	=100
1r	.
=101	=101
4r	.
12d	_
[6c	_
8c]	_
8d	_
8d	_
8d	_
=102	=102
2d	_
2r	.
=103	=103
1r	.
=104	=104
4r	.
12d	_
[6c	_
8c]	_
8d	_
8d	_
8d	_
=105	=105
2d	_
2r	.
=106	=106
1r	.
=107	=107
4r	.
12d	_
[6c	_
8c]	_
8d	_
8d	_
8d	_
=108	=108
2d	_
2r	.
=109	=109
1r	.
r;	.
r;	.
*-	*-
!!!ENC: Nathaniel Condit-Schultz